X: 14905
T: Gates Of Mullagh, The
R: reel
M: 4/4
K: Gmajor
D|:GFGB dBGB|eBdB cBAF|D3E FGAB|cAed cAFA|
Bggf gdBd|eBdB cBAc|Bg (3gfg bgag|fdcA BGG2:|
|:Bdge dB (3BBB|cBAG FADF|GABG Aaag|(3efg ag fdcA|
Bg (3gfg dBGB|cBAG FADC|B,DGB Ac (3ccc|dB cA BGG2:|

